libs/icons/src/svg/drop.svg

<svg width="16" height="16" viewBox="0 0 16 16" fill="none" xmlns="http://www.w3.org/2000/svg">
<g clip-path="url(#clip0_3_3328)">
<path d="M6.66667 10C6.66667 9.63181 6.36819 9.33334 6 9.33334C5.63181 9.33334 5.33333 9.63181 5.33333 10C5.33333 11.0428 5.82799 11.7379 6.42053 12.1481C6.97781 12.5339 7.61372 12.6667 8 12.6667C8.36819 12.6667 8.66667 12.3682 8.66667 12C8.66667 11.6318 8.36819 11.3333 8 11.3333C7.85295 11.3333 7.48886 11.2661 7.17947 11.0519C6.90534 10.8621 6.66667 10.5573 6.66667 10Z" fill="#202327"/>
<path fill-rule="evenodd" clip-rule="evenodd" d="M8 1.33334L8.47432 0.864871C8.34907 0.738051 8.17825 0.666672 8 0.666672C7.82175 0.666672 7.65093 0.738051 7.52568 0.864871L7.52069 0.869934L7.50811 0.882769C7.49724 0.893878 7.48147 0.910055 7.46113 0.93107C7.42044 0.973096 7.36143 1.03449 7.28671 1.11341C7.13732 1.27121 6.9249 1.49931 6.67045 1.78292C6.1622 2.3494 5.48297 3.14099 4.80212 4.03886C4.12303 4.93441 3.432 5.94918 2.90799 6.96117C2.39148 7.95869 2 9.02322 2 10C2 13.832 5.09902 16 8 16C10.901 16 14 13.832 14 10C14 9.02322 13.6085 7.95869 13.092 6.96117C12.568 5.94918 11.877 4.93441 11.1979 4.03886C10.517 3.14099 9.8378 2.3494 9.32955 1.78292C9.0751 1.49931 8.86268 1.27121 8.71329 1.11341C8.63857 1.03449 8.57956 0.973096 8.53887 0.93107C8.51853 0.910055 8.50276 0.893878 8.49189 0.882769L8.47931 0.869934L8.47432 0.864871C8.47432 0.864871 8.47432 0.864871 8 1.33334ZM8 1.33334C7.52568 0.864871 7.52568 0.864871 7.52568 0.864871L8 1.33334ZM7.66289 2.67334C7.78663 2.53542 7.89988 2.41131 8 2.30289C8.10012 2.41131 8.21337 2.53542 8.33711 2.67334C8.82887 3.22144 9.48297 3.98402 10.1355 4.84449C10.7897 5.70727 11.432 6.65499 11.908 7.57425C12.3915 8.50799 12.6667 9.34346 12.6667 10C12.6667 12.968 10.299 14.6667 8 14.6667C5.70098 14.6667 3.33333 12.968 3.33333 10C3.33333 9.34346 3.60852 8.50799 4.09201 7.57425C4.568 6.65499 5.2103 5.70727 5.86454 4.84449C6.51703 3.98402 7.17113 3.22144 7.66289 2.67334Z" fill="#202327"/>
</g>
<defs>
<clipPath id="clip0_3_3328">
<rect width="16" height="16" fill="white"/>
</clipPath>
</defs>
</svg>

<svg xmlns="http://www.w3.org/2000/svg" viewBox="0 0 16 16" class="sageicon"><path d="M6.667 10a.667.667 0 0 0-1.334 0c0 1.043.495 1.738 1.088 2.148.557.386 1.193.519 1.579.519a.667.667 0 0 0 0-1.334 1.64 1.64 0 0 1-.82-.281c-.275-.19-.513-.495-.513-1.052Z"/><path fill-rule="evenodd" d="m8 1.333.474-.468a.667.667 0 0 0-.948 0L7.52.87l-.013.013a12.491 12.491 0 0 0-.221.23 36.155 36.155 0 0 0-2.485 2.925c-.679.896-1.37 1.911-1.894 2.923C2.391 7.96 2 9.023 2 10c0 3.832 3.099 6 6 6s6-2.168 6-6c0-.977-.392-2.041-.908-3.039-.524-1.012-1.215-2.027-1.894-2.922A36.172 36.172 0 0 0 8.492.883L8.479.87 8.474.865 8 1.333Zm0 0L7.526.865 8 1.333Zm-.337 1.34c.124-.138.237-.262.337-.37a34.837 34.837 0 0 1 2.136 2.542c.654.862 1.296 1.81 1.772 2.73.484.933.759 1.768.759 2.425 0 2.968-2.368 4.667-4.667 4.667S3.333 12.968 3.333 10c0-.657.276-1.492.759-2.426.476-.919 1.118-1.867 1.773-2.73a34.824 34.824 0 0 1 1.798-2.17Z"/></svg>
